X: 52
T:Hand Me Do
R:reel
Z:Version from Seamus McGuire, Boston 2003.
Z: abc by Alf.
Z:see also hn-reel-152
M:C|
K:D
Ac|dD D/D/D FDFA|dfaf gfec|dDD/D/D FGAF|GFEF GABc|
dD~D2 FDFA|dfaf gfeg|f/g/feg fdAF|GFEF GABc|
|dD D/D/D FDFA|dfaf gfec|dDcD BDAF|GFEF GABc|
dD D/D/D FDFA|dfaf gfeg|f/g/feg fdAF|GFEF GABc||
d2fd Adfd|d/d/d fd BAFA|d2fd Adfd|BGEF GABc|
d2fd Adfd|cdef gbag|fedc dBAF|GFEF GABc|
d2fd Adfd|d2fd BAFA|dafd Adfa|(3gag fg eAce|
a^gab afdc|Bged cbag|(3fgf eg fdAF|GFEF GA||
